**kern	**kern
*part1	*part1
*staff2	*staff1
*I"Piano	*
*clefF4	*clefF4
*k[b-e-a-]	*k[b-e-a-]
=1	=1
*	*^
(8EE-L	8B-L	4.D 4.G
8DD	8d	.
8EE-J)	8cJ	.
=	=	=
4.FF	(8A-L	4.C 4.F
.	8B-	.
.	8GJ)	.
*	*v	*v
=	=
(8EE-L	[4.C [4.F [4.A-
8FF	.
8DDJ)	.
=	=
*	*^
4.CC	8A-L]	4.C] 4.F]
.	8B-	.
.	8cJ	.
*	*clefG2	*
=	=	=
(4BBB- 4BB-	(8dL	4F 4B-
.	8e-	.
8AAA-) 8AA-	8fJ)	8A- 8c
*	*v	*v
=	=
4.GGG^^ 4.GG	[4.G^^ [4.Bn 4.e- [4.g
=	=
4.FF 4.F	4.G] 4.B] 4.d 4.g]
=	=
*-	*-
!!!system-decoration: {(s1,s2)}
